X:1
T:Title
%%score { ( 1 4 ) | ( 2 3 ) }
L:1/8
Q:1/4=116
M:4/4
K:Ab
V:1 treble nm="Grand Piano"
V:4 treble 
V:2 bass 
V:3 bass 
V:1
 [Ec]2 [Ec]2 .[FB]2 [A,DF]2 | [A,CE]2[K:bass] [E,A,C]2 [A,CE]2[K:treble] c2 | e6 z2 | B6 z2 | %4
w: Edwin~Moore * * *||||
 [Ec]2 [Ec]2 .[FB]2 [A,DF]2 | [A,CE]2[K:bass] [E,A,C]2 [A,CE]2 z2 | %6
w: ||
 z2[K:treble] [DF]2 [CEA]2 [B,EG]2 | [CEA]6 z2 | B2 B2 B2 [G,E]2 | [A,EA]2 B2 c4 | d2 d2 d2 B2 | %11
w: |||||
 c2 [Ee]2 B4 | c3 d e2 [Ec]2 | c2 B2 A2 [Fd]2 | z4 B4 |[M:3/4] [CA]6 |] %16
w: |||||
V:2
 [A,,A,]2 [A,,A,]2 z A D,2 | A,,2 A,,2 A,,2 z2 | z2 [E,B,]2 [A,C]2 z2 | z2 [E,G,]2 [E,G,]2 z2 | %4
 [A,,A,]2 [A,,A,]2 z A D,2 | A,,2 A,,2 A,,2[K:treble] c2 | B4[K:bass] z4 | A,,6 z2 | %8
 [E,G,E]2 [E,G,E]2 [E,G,E]2 E,D, | C,2 [E,G,E]2 [A,E]4 | [E,B,E]2 [E,B,E]2 [E,B,E]2 [E,G,E]2 | %11
 [A,E]2 [C,A,]2 [E,G,E]4 | [A,E]3 [A,B,E] [A,CE]2 [A,,A,]2 | [E,A,E]2 [=E,G,D]2 [F,A,C]2 [D,A,]2 | %14
 z4 E2 z2 |[M:3/4] [A,,A,]6 |] %16
V:3
 z4 [D,A,]2 z2 | x8 | x8 | x8 | z4 [D,A,]2 z2 | x6[K:treble] x2 | z2[K:bass] D,2 E,2 E,2 | x8 | %8
 x8 | x8 | x8 | x8 | x8 | x8 | [E,A,E]4 [E,G,]4 |[M:3/4] x6 |] %16
V:4
 x8 | x2[K:bass] x4[K:treble] x2 | z2 G2 A2 c2 | z2 E2 E2 z2 | x8 | x2[K:bass] x6 | %6
 x2[K:treble] x6 | x8 | x8 | x8 | x8 | x8 | x8 | x8 | c4 z2 D2 |[M:3/4] x6 |] %16

